X:1
T:In monte Oliveti - Bruckner
T:James Gibb editions
%%score [ ( 1 2 ) ( 3 4 ) ]
L:1/8
Q:1/4=120
M:2/2
K:Ab
V:1 treble nm="MusicXML Part"
V:2 treble 
V:3 bass nm="MusicXML Part"
V:4 bass 
V:1
!p!"^In monte Oliveti""^Matthew 26:39""^Andante" F4 F2 F2 |!<(! G4 A4!<)! |!>(! (B4 d4) | %3
w: In mon- te|O- li-|ve­ *|
 c4!>)! z4 | (B4"^Anton Bruckner\n(1824-1896)" c4) |[M:2/2] d4 c2 c2 |!<(! B8!<)! | A4 z4 | %8
w: ti|o­ *||||
!f! c4 c2 =d2 |!<(! e4 =d2 c2!<)! | (=d4 f4) | e4 z4 |!p! e3 e B2 c2 | F4 G2 G2 | (A4 G2 F2) | %15
w: ||pot­ *|est,|tran- se- at a|me ca- lix|i­ * *|
 E4 z4 |!p! B4 A2 G2 | (A4 c2) c2 | f4 f4 |!pp!!pp! d4 B2 c2 | (A4 G4) | F8 |] %22
w: ste:|||||||
V:2
 C4 C2 C2 | D4 F4 | F8 | F4 z4 | (F4 F4) |[M:2/2] (F2 E2) E2 E2 | (F4!>(! E2 D2)!>)! | C4 z4 | %8
w: |||||ra­ * vit ad|Pa­ * *|trem:|
 F4 G2 G2 | G4 G2 G2 | (A4 G4) | G4 z4 | E3 E E2 E2 | D4 E2 E2 | (E4 =D4) | E4 z4 | E4 E2 E2 | %17
w: Pa- ter, si|fi- e- ri|||||||Fi- at vo-|
 E6 (AG) | F4 F4 | F4 F2 =E2 | (F4 =E4) | !fermata!F8 |] %22
w: lun- tas *|tu- a,|vo- lun- tas|||
V:3
 A,4 A,2 A,2 | B,4 C4 | B,8 | A,4 z4 | (B,4 A,4) |[M:2/2] (A,2 G,2) A,2 A,2 | (A,4 G,4) | A,4 z4 | %8
w: ||||||||
 A,4 G,2 =B,2 | C4 =B,2 C2 |!>(! (C4 =B,4) | C4!>)! z4 | _B,3 B, B,2 A,2 | B,4 B,2 B,2 | %14
w: ||||||
 (C4 B,2 A,2) | G,4 z4 | _D4 C2 =B,2 | (C4 A,2) A,2 |!f! A,4 A,4 |!pp!!pp! B,4 F,2 G,2 | %20
w: ||||||
 (A,2 B,2 C3 B,) | A,8 |] %22
w: tu­ * * *|a.|
V:4
 F,4 F,2 F,2 | F,4 F,4 | (D,4 B,,4) | F,4 z4 | (D,4 C,4) |[M:2/2] B,,4 A,,2 A,,2 | (D,4 E,4) | %7
 A,,4 z4 | F,4 E,2 =D,2 | C,4 F,2 E,2 | (F,4 G,4) | C,4 z4 | G,,3 G,, G,,2 A,,2 | A,,4 G,,2 G,,2 | %14
 (F,,4 B,,4) | E,4 z4 | E,4 E,2 E,2 | (A,,4 A,2) (F,E,) | D,4 D,4 | B,,4 D,2 C,2 | C,8 | %21
 !fermata![F,,F,]8 |] %22

